X:1
T:Shine Calm and Bright, Ye Moonbeams Light
T:Shine Calm and Bright, Ye Moonbeams Light
T:George Pierce Grantham
T:George Pierce Grantham (1833–?)
T:Public Domain Courtesy of the Cyber Hymnal™
T:Public Domain Courtesy of the Cyber Hymnal™
C:George Pierce Grantham
Z:Public Domain
Z:Courtesy of the Cyber Hymnal™
%%score ( 1 2 ) ( 3 4 )
L:1/8
Q:1/4=135
M:6/4
K:G
V:1 treble 
V:2 treble 
V:3 bass 
V:4 bass 
V:1
"^Moderato" [B,D]2 | [DB]4 [DB]2 (B2 A2) [DG]2 | [CE]4 [CG]2 D4 D2 | [DG]4 [GB]2 ([GB]3 [FA]) G2 | %4
w: 1.~Shine|calm and bright, * ye|moon- beams light, O’er|Beth- le’em’s town * in|
w: 2.~The|crowds who sleep * in|Beth- le’em’s walls Both|ci- ti- zen * and|
w: 3.~To|us, sweet Babe! * Thy|lowl- y crib Than|cost- ly couch * is|
 [DF]2 [DA]4 z4 D2 | [DB]4 [Bd]2 ([Ac]2 [GB]2) [FA]2 | G4 E2 [B,D]4 D2 | (G3 F) [DG]2 [FB]4 [FA]2 | %8
w: slum- ber, O’er|young and old, * o’er|bur- gess bold, And|guests * in good- ly|
w: strang- er, From|roy- al blood * a-|like have sprung, And|spurn * the hum- ble|
w: dear- er, It|seems to make * Thee|more our own, To|bring * the God- head|
 [FA]2 G4 z4 [FA]2 | [EA]4 [^CE]2 [CE]4 [EG]2 | [^CG]4 [DF]2 [DF]4 [FA]2 | %11
w: num- ber; For|shel- tered safe from|win- ter’s frost, Well|
w: man- ger. But|all one day must|wend their way, Heav-|
w: near- er! It|seems to show Thy|sym- pa- thy For|
 ([GB]2 [FA]2) [EG]2 ([DF]2 [EG]2) [^CE]2 | D6 z4 D2 | [GB]4 [Gd]2 (d2 c2) [GB]2 | %14
w: housed * and warm * all|lie, Se-|cure from snow * in|
w: ing * their lat- * est|sigh, To|mor- tal doom * in|
w: hu- * man grief * and|pain, And|makes us long * to|
 [EA]4 E2 [DF]4 [DG]2 | (G3 F) [DG]2 [FB]4 [FA]2 | G6 z4 | [DF]2 | [FA]4 [GA]2 [FA]4 [DB]2 | %19
w: street be- low, And|screened * from froz- en|sky.|But|Babe be- nign! No|
w: lone- some tomb, And|in * cor- rupt- ion|lie.|But|Babe be- nign! No|
w: raise the song Of|No- * el o’er a-|gain!|O|Babe be- nign! Thy|
 [FA]4 (AG) [DF]4 [GB]2 | ([GB]2 [FA]2) [EG]2 ([DF]2 [EG]2) [^CE]2 | D6 z4 D2 | %22
w: couch is * Thine, Save|low- * ly man- * ger|stall, Where|
w: power ma- * lign Shall|o- * ver Thee * bear|sway; Thy|
w: love di- * vine Shed|round * us, day * by|day; Sweet|
 [GB]4 [Gd]2 [Ad]2 [Ac]2 [GB]2 | [EA]4 E2 [DF]4 [DG]2 | [DG]3 [DF] [DG]2 [FB]4 [FA]2 | G6- G4 |] %26
w: cold winds blow on Thy|form di- vine, Who|com- est to save us|all. *|
w: life of light in the|hea- vens bright Shall|glow in e- ter- nal|day! *|
w: Child of li- ght! Be|Thou our might, Our|ge- nt- le King for|aye! *|
V:2
 x2 | x6 D4 x2 | x6 D4 D2 | x10 G2 | x10 D2 | x12 | G4 E2 x2 D2 x2 | D4 x8 | x2 G4 x6 | x12 | x12 | %11
 x12 | D6 D2 x4 | x6 A4 x2 | x4 E2 x6 | D4 x8 | G6 x4 | x2 | x12 | x4 E2 x6 | x12 | D6 D2 x4 | %22
 x12 | x4 E2 x6 | x12 | G6- G4 |] %26
V:3
 G,2 | G,4 [G,B,]2 [F,C]4 [G,B,]2 | [C,G,]4 [E,G,]2 [G,B,]4 D2 | %3
 [B,D]4 [G,D]2 ([G,D]3 [D,C]) [D,B,]2 | [D,A,]2 [D,C]4 z4 [F,C]2 | [G,B,]4 [G,B,]2 D4 [D,D]2 | %6
 [B,,D]4 [C,G,]2 [G,,G,]4 [G,B,]2 | ([G,B,]3 [A,C]) [B,D]2 D4 [D,C]2 | [D,C]2 [G,B,]4 z4 [D,D]2 | %9
 [A,^C]4 [A,,A,]2 [A,,A,]4 [^C,A,]2 | [E,A,]4 [D,A,]2 [D,A,]4 [D,D]2 | %11
 [D,D]4 [G,,B,]2 [A,,A,]4 [A,,G,]2 | [D,F,]6 z4 [G,B,]2 | [G,D]4 [G,B,]2 [F,D]4 [G,D]2 | %14
 [C,C]4 [C,A,]2 [D,A,]4 [G,B,]2 | [D,A,]4 [G,B,]2 [D,D]4 [D,C]2 | [G,,G,B,]6 z4 | [D,A,]2 | %18
 [D,D]4 [E,^C]2 [F,D]4 [G,D]2 | [A,D]4 [A,^C]2 [B,D]4 [G,D]2 | [D,D]4 [G,,B,]2 [A,,A,]4 (A,G,) | %21
 [D,F,]6 z4 [G,B,]2 | [G,D]4 [G,B,]2 [F,D]2 [F,D]2 [G,D]2 | [C,C]4 [C,A,]2 [D,A,]4 [G,B,]2 | %24
 [D,A,]3 [D,A,] [G,B,]2 [D,D]4 [D,C]2 | [G,,B,]6- [G,,B,]4 |] %26
V:4
 G,2 | G,4 x8 | x10 D2 | x12 | x12 | x6 (F,2 G,2) x2 | x12 | x6 D4 x2 | x12 | x12 | x12 | x12 | %12
 x12 | x12 | x12 | x12 | x10 | x2 | x12 | x12 | x10 A,,2 | x12 | x12 | x12 | x12 | x10 |] %26

